X: 1
T: Kiss Her An Clap Her
M: 6/8
L: 1/8
R: jig
K: Dmaj
B |:  c2 e ecA | AcA f2 e | dBG G2 g | dBG BdB | 
c2e ecA | ecA e2 c | def g2 e |dBG BdB :|
|: ABA a3 | ecA a3 | A2 ^g a3 | g2 e dBG | 
ABA a2 a |ecA efg | fef def | g2 e dBG :|
